brandFactory_export/3.Masa/Cambiar Plan_3Masa.svg

<?xml version="1.0" encoding="UTF-8"?>
<svg width="24px" height="24px" viewBox="0 0 24 24" version="1.1" xmlns="http://www.w3.org/2000/svg" xmlns:xlink="http://www.w3.org/1999/xlink">
    <title>3.Masa/Cambiar Plan_3Masa</title>
    <g id="Symbols" stroke="none" stroke-width="1" fill="none" fill-rule="evenodd">
        <g id="3.Masa/Cambiar-Plan_3Masa" fill="#5CB615" fill-rule="nonzero">
            <path d="M2.97478992,10.0806723 C3.25378151,10.0806723 3.4789916,9.85546218 3.4789916,9.57647059 L3.4789916,8.57815126 C3.4789916,7.7210084 3.68067227,7.09243697 4.08403361,6.70588235 C4.47058824,6.33277311 5.08571429,6.14453782 5.9092437,6.14453782 L6.78319328,6.14453782 C6.61848739,6.28907563 6.43361345,6.44705882 6.26218487,6.59495798 C6.05042017,6.77310924 6.02016807,7.09243697 6.20168067,7.30420168 C6.38319328,7.51596639 6.69915966,7.54621849 6.91092437,7.36470588 C6.91428571,7.36134454 6.91764706,7.36134454 6.91764706,7.35798319 C7.08235294,7.21680672 7.9092437,6.50756303 8.05714286,6.35630252 C8.50084034,5.91260504 8.49747899,5.35798319 8.05042017,4.90756303 C7.7512605,4.60840336 6.94789916,3.92605042 6.91428571,3.89579832 C6.70252101,3.71428571 6.38319328,3.74117647 6.20504202,3.95294118 C6.02352941,4.16470588 6.05042017,4.48403361 6.26218487,4.66218487 C6.26554622,4.66554622 6.53109244,4.8907563 6.80336134,5.13277311 L5.90588235,5.13277311 C4.81344538,5.13277311 3.96302521,5.41512605 3.38151261,5.97647059 C2.77647059,6.56134454 2.46722689,7.43529412 2.46722689,8.57478992 L2.46722689,9.57310924 C2.47058824,9.85546218 2.69579832,10.0806723 2.97478992,10.0806723 L2.97478992,10.0806723 Z M8.35630252,13.6436975 L5.44537815,10.7294118 C5.31764706,10.6016807 5.14957983,10.5310924 4.97142857,10.5310924 L1.02184874,10.5310924 C0.420168067,10.5344538 0,10.9546218 0,11.5529412 L0,21.3411765 C0,21.9529412 0.410084034,22.3663866 1.02184874,22.3663866 L7.54621849,22.3663866 C8.13781513,22.3663866 8.55462185,21.9495798 8.55462185,21.3579832 L8.55462185,14.1176471 C8.55462185,13.9394958 8.48403361,13.7680672 8.35630252,13.6436975 Z M6.13781513,20.1647059 L2.42689076,20.1647059 C2.14789916,20.1647059 1.92268908,19.9394958 1.92268908,19.6605042 C1.92268908,19.3815126 2.14789916,19.1563025 2.42689076,19.1563025 L6.14117647,19.1563025 C6.42016807,19.1563025 6.64537815,19.3815126 6.64537815,19.6605042 C6.64537815,19.9394958 6.42016807,20.1647059 6.13781513,20.1647059 Z M6.13781513,18.4168067 L2.42689076,18.4168067 C2.14789916,18.4168067 1.92268908,18.1915966 1.92268908,17.912605 C1.92268908,17.6336134 2.14789916,17.4084034 2.42689076,17.4084034 L6.14117647,17.4084034 C6.42016807,17.4084034 6.64537815,17.6336134 6.64537815,17.912605 C6.64537815,18.1915966 6.42016807,18.4168067 6.13781513,18.4168067 Z M6.13781513,16.6689076 L2.42689076,16.6689076 C2.14789916,16.6689076 1.92268908,16.4436975 1.92268908,16.1647059 C1.92268908,15.8857143 2.14789916,15.6605042 2.42689076,15.6605042 L6.14117647,15.6605042 C6.42016807,15.6605042 6.64537815,15.8857143 6.64537815,16.1647059 C6.64537815,16.4436975 6.42016807,16.6689076 6.13781513,16.6689076 Z M6.34957983,13.9831933 C5.46554622,13.9831933 5.10588235,13.6235294 5.10588235,12.7394958 L5.10588235,12.292437 L6.79663866,13.9831933 L6.34957983,13.9831933 L6.34957983,13.9831933 Z M23.6302521,7.86218487 C23.6302521,7.84537815 23.6268908,7.82857143 23.6235294,7.81176471 C23.6235294,7.80504202 23.6235294,7.80168067 23.6201681,7.79495798 C23.6168067,7.77478992 23.610084,7.75798319 23.6067227,7.73781513 L23.6067227,7.73109244 C23.6,7.71092437 23.5932773,7.69411765 23.5865546,7.67394958 L23.5831933,7.66722689 C23.5764706,7.65042017 23.5663866,7.63361345 23.5596639,7.61680672 L23.5563025,7.60672269 C23.5495798,7.58991597 23.5394958,7.57647059 23.5294118,7.56302521 C23.5260504,7.55966387 23.5260504,7.55630252 23.5226891,7.54957983 L23.492437,7.5092437 C23.4890756,7.50588235 23.4857143,7.49915966 23.4823529,7.49579832 C23.4689076,7.4789916 23.4521008,7.46218487 23.4386555,7.4487395 L18.194958,2.20504202 C18.1781513,2.18823529 18.1647059,2.17478992 18.1445378,2.16134454 L18.1310924,2.1512605 L18.0907563,2.1210084 L18.0806723,2.11428571 C18.0672269,2.10420168 18.0504202,2.09411765 18.0369748,2.08739496 L18.0302521,2.08403361 C18.0134454,2.07394958 17.9966387,2.06722689 17.9798319,2.0605042 L17.9764706,2.0605042 C17.9563025,2.05378151 17.9394958,2.04705882 17.9193277,2.04033613 L17.912605,2.04033613 C17.892437,2.03361345 17.8722689,2.0302521 17.8554622,2.02689076 L17.8420168,2.02352941 C17.8252101,2.02016807 17.8084034,2.01680672 17.7915966,2.01680672 C17.7747899,2.01680672 17.7478992,2.01344538 17.7243697,2.01344538 L11.4722689,2.01344538 C10.6655462,2.01344538 10.1613445,2.51092437 10.1613445,3.31092437 L10.1613445,21.0689076 C10.1613445,21.8823529 10.6655462,22.3865546 11.4756303,22.389916 L22.4705882,22.389916 C22.9983193,22.389916 23.2773109,22.1512605 23.4218487,21.9529412 C23.6168067,21.6806723 23.6403361,21.3546218 23.6403361,21.102521 L23.6403361,7.92605042 C23.6336134,7.90588235 23.6336134,7.88235294 23.6302521,7.86218487 L23.6302521,7.86218487 Z M20.3798319,18.4403361 L13.4084034,18.4403361 C13.0386555,18.4403361 12.7361345,18.1378151 12.7361345,17.7680672 C12.7361345,17.3983193 13.0386555,17.0957983 13.4084034,17.0957983 L20.3798319,17.0957983 C20.7495798,17.0957983 21.0521008,17.3983193 21.0521008,17.7680672 C21.0521008,18.1378151 20.7495798,18.4403361 20.3798319,18.4403361 Z M20.3798319,15.1361345 L13.4084034,15.1361345 C13.0386555,15.1361345 12.7361345,14.8336134 12.7361345,14.4638655 C12.7361345,14.0941176 13.0386555,13.7915966 13.4084034,13.7915966 L20.3798319,13.7915966 C20.7495798,13.7915966 21.0521008,14.0941176 21.0521008,14.4638655 C21.0521008,14.8336134 20.7495798,15.1361345 20.3798319,15.1361345 Z M20.3798319,11.8554622 L13.4084034,11.8554622 C13.0386555,11.8554622 12.7361345,11.5529412 12.7361345,11.1831933 C12.7361345,10.8134454 13.0386555,10.5109244 13.4084034,10.5109244 L20.3798319,10.5109244 C20.7495798,10.5109244 21.0521008,10.8134454 21.0521008,11.1831933 C21.0521008,11.5529412 20.7495798,11.8554622 20.3798319,11.8554622 Z M20.3394958,7.25714286 C19.7176471,7.25714286 19.2168067,7.08571429 18.887395,6.75630252 C18.5579832,6.42689076 18.389916,5.92941176 18.389916,5.30756303 L18.389916,4.3092437 L21.3378151,7.25714286 L20.3394958,7.25714286 Z" id="Cambiar-Plan_3Masa"></path>
        </g>
    </g>
</svg>

<svg width="24" height="24" viewBox="0 0 24 24" xmlns="http://www.w3.org/2000/svg"><path d="M2.975 10.08a.504.504 0 00.504-.504v-.998c0-.857.202-1.486.605-1.872.387-.373 1.002-.561 1.825-.561h.874l-.52.45a.502.502 0 10.649.77c.002-.004.006-.004.006-.007.164-.141.991-.85 1.14-1.002.443-.443.44-.998-.008-1.448-.299-.3-1.102-.982-1.136-1.012a.502.502 0 00-.709.057.502.502 0 00.057.71c.004.003.27.228.541.47h-.897c-1.093 0-1.943.282-2.524.843-.606.585-.915 1.46-.915 2.599v.998a.51.51 0 00.508.508zm5.381 3.564l-2.91-2.915a.667.667 0 00-.475-.198h-3.95c-.6.003-1.021.424-1.021 1.022v9.788c0 .612.41 1.025 1.022 1.025h6.524c.592 0 1.009-.416 1.009-1.008v-7.24a.66.66 0 00-.199-.474zm-2.218 6.52H2.427a.504.504 0 110-1.008H6.14a.504.504 0 11-.003 1.009zm0-1.747H2.427a.504.504 0 110-1.009H6.14a.504.504 0 11-.003 1.009zm0-1.748H2.427a.504.504 0 110-1.008H6.14a.504.504 0 11-.003 1.008zm.212-2.686c-.884 0-1.244-.36-1.244-1.244v-.447l1.69 1.691H6.35zm17.28-6.12a.26.26 0 00-.006-.051c0-.007 0-.01-.004-.017-.003-.02-.01-.037-.013-.057V7.73l-.02-.057-.004-.007c-.007-.017-.017-.033-.023-.05l-.004-.01a.19.19 0 00-.027-.044c-.003-.003-.003-.007-.006-.013l-.03-.04-.01-.014c-.014-.017-.03-.034-.044-.047l-5.244-5.244a.314.314 0 00-.05-.044l-.014-.01-.04-.03-.01-.007a.307.307 0 00-.044-.027l-.007-.003a.34.34 0 00-.05-.023h-.004l-.057-.02h-.006c-.02-.007-.04-.01-.058-.014l-.013-.003c-.017-.004-.034-.007-.05-.007-.017 0-.044-.004-.068-.004h-6.252c-.806 0-1.31.498-1.31 1.298v17.758c0 .813.504 1.318 1.314 1.32H22.47c.527 0 .806-.238.95-.436.196-.272.22-.598.22-.85V7.926c-.007-.02-.007-.044-.01-.064zM20.38 18.44h-6.972a.674.674 0 01-.672-.672c0-.37.303-.672.672-.672h6.972c.37 0 .672.302.672.672 0 .37-.302.672-.672.672zm0-3.304h-6.972a.674.674 0 01-.672-.672c0-.37.303-.672.672-.672h6.972c.37 0 .672.302.672.672 0 .37-.302.672-.672.672zm0-3.28h-6.972a.674.674 0 01-.672-.673c0-.37.303-.672.672-.672h6.972c.37 0 .672.302.672.672 0 .37-.302.672-.672.672zm-.04-4.599c-.622 0-1.123-.171-1.453-.5-.329-.33-.497-.828-.497-1.45V4.31l2.948 2.948h-.999z" fill="#5CB615" fill-rule="nonzero"/></svg>
